X:48
T:Skylarks at the Clappers
C:Taz Tarry 11 December 2022
M:4/4
L:1/8
K:G
|:A|D>FA>B A>FE>D|D>FA>B d2 (3dBA|G>AB>d e>dB>d| e>de>f a2 (3gfe|
g>fe>d e>d (3Bcd |e>dB>d e2 (3dBA|G>AB>G A>GE>D| E>DA>F G3:|
|:A|B>d (3Bcd c>e (3cde|(3def e>f d3 f|(3efg (3fga (3gab a2|g>af>a e2 (3agf|
g>f (3agf f>e (3gfe|(3edB e>c A2 e>d|G>A (3BAG A>GE>D| E>DA>F G3:|

